X:262
T:Dearest Dicky - Field Town
M:6/8
K:G
D | G2 G BAB | cBc def | gfg edc | BAG FED |
G2 G BAB | cBc def | gfg AB^c | d3 d2 :|
B/2c/2 | dGB cde | cAB cBc | dGB cde |
cAB c2 d | e2 d eaf | g3 gfe | dcB AGF | GAG G2 ||
B/2c/2 | dGB cde | cAB cBc | dGB cde | cAB c2 d | (2ed e3 |
(2ea f3 | (2ga g3 | (2gf e3 | (2dc B3 | (2AG F3 | (2GA  G3 | G3-G2 |
